**kern	**silbe
*ICvox	*
*E:	*
*M4/4	*
*clefG2	*
r;	.
=1	=1
1r	.
=2	=2
1r	.
=3	=3
1r	.
=4	=4
1r	.
=5	=5
1r	.
=6	=6
1r	.
=7	=7
*M2/4	*
2r	.
=8	=8
*M4/4	*
1r	.
=9	=9
1r	.
=10	=10
1r	.
=11	=11
1r	.
=12	=12
1r	.
=13	=13
1r	.
=14	=14
1r	.
=15	=15
1r	.
=16	=16
1r	.
=17	=17
1r	.
=18	=18
1r	.
=19	=19
1r	.
=20	=20
1r	.
=21	=21
1r	.
=22	=22
1r	.
=23	=23
1r	.
=24	=24
1r	.
=25	=25
1r	.
=26	=26
2r	.
4r	.
8r	.
8e	Be-
=27	=27
4g#	-gin
8g#	the
4g#	day
8f#	with
8e	a
8[f#	friend-
=28	=28
8f#]	_
4g#	-ly
8f#	voice
4e	_
8d#	A
8B	com-
=29	=29
4d#	-pan-
8d#	-ion
4d#	un-
4d#	-ob-
8[e	-tru-
=30	=30
8e]	_
4c#	-sive
8r	.
2r	.
=31	=31
4g#	Plays
4g#	that
8g#	song
8f#	_
4e	that's
=32	=32
4f#	so
8f#	e-
4g#	-lus-
8f#	-ive
8e	and
8c#	the
=33	=33
4d#	ma-
8d#	-gic
8f#	mu-
8d#	_
8d#	-sic
8d#	makes
8[f#	your
=34	=34
8f#]	_
8e	morn-
8e	-ing
4e	mood
8r	.
4r	.
=35	=35
1r	.
=36	=36
1r	.
=37	=37
1r	.
=38	=38
1r	.
=39	=39
8g#	Off
8g#	on
8g#	your
4g#	way
8f#	on
8e	the
8[f#	o-
=40	=40
8f#]	_
8f#	-pen
8g#	_
4.f#	road
8f#	There
8B	is
=41	=41
8d#	ma-
4d#	-gic
4d#	at
4d#	your
8[e	fing-
=42	=42
8e]	_
4e	-ers
8r	.
2r	.
=43	=43
8r	.
8g#	For
8g#	the
4g#	spi-
8f#	-rit
8e	_
8[f#	e-
=44	=44
8f#]	_
4f#	-ver
4d#	ling-
8c#	-ers
8B	Un-
8B	-de-
=45	=45
4d#	-man-
8d#	-ding
4f#	con-
8d#	-tact
8d#	in
8f#	your
=46	=46
8e	_
8e	ha-
8e	-ppy
4e	sol-
8c#	-i-
8c#	-tude
8B	_
=47	=47
1r	.
=48	=48
1r	.
=49	=49
1r	.
=50	=50
1r	.
=51	=51
1r	.
=52	=52
1r	.
=53	=53
1r	.
=54	=54
2r	.
4r	.
8r	.
8g#	In-
=55	=55
8g#	-vi-
8g#	-si-
8g#	-ble
4f#	air-
4.g#	-waves
=56	=56
8f#	Cra-
8f#	-ckle
8g#	with
4f#	life
8r	.
4r	.
=57	=57
4b	Bright
8b	an-
4a	-tenn-
4b	-ae
8[g#	bri-
=58	=58
8g#]	_
8a	-stle
8g#	with
8f#	the
8e	en-
8f#	-er-
4e	-gy
=59	=59
1r	.
=60	=60
2r	.
4r	.
8r	.
8g#	E-
=61	=61
8g#	-mot-
8g#	-tion-
8g#	-al
4f#	feed-
8g#	-back
8r	.
16e	on
16e	a
=62	=62
4f#	time-
8g#	-less
4g#	wave-
4f#	-length
8r	.
=63	=63
8b	Bear-
8b	-ing
8b	a
4a	gift
8b	be-
8b	-yong
8a	_
=64	=64
4a	price
8r	.
8[e	Al-
8e]	_
8f#	-most
4e	_
=65	=65
2e	free
2r	.
=66	=66
1r	.
=67	=67
8g#	All
8g#	this
8g#	ma-
4g#	-chin-
8f#	-er-
4e	-y
=68	=68
8f#	mak-
8f#	-ing
8f#	mo-
8e	-dern
4g#	mu-
8f#	-sic
8B	can
=69	=69
4d#	still
4d#	be
8d#	o-
4d#	-pen-
8e	-heart-
=70	=70
4c#	-ed
4r	.
2r	.
=71	=71
8g#	Not
8g#	so
8g#	cold-
8g#	-ly
8g#	char-
8f#	-ted
8e	it's
8[f#	rea-
=72	=72
8f#]	_
8f#	-lly
8f#	just
8e	a
8g#	ques-
8g#	-tion
8f#	of
8B	your
=73	=73
8g#	hon-
8f#	-est-
4f#	-y
8r	.
4g#	Yeah
8g#	your
=74	=74
8g#	hon-
8f#	-est-
4f#	-y
2r	.
=75	=75
8r	.
4g#	One
4g#	likes
8f#	to
8e	be-
8g#	-lieve
=76	=76
4f#	_
8f#	in
8e	the
8g#	free-
8g#	-dom
8f#	of
8[f#	mus-
=77	=77
8f#]	_
8e	-ic
4r	.
2r	.
=78	=78
2r	.
4r	.
8r	.
8f#	But
=79	=79
8g#	gli-
8g#	-tter-
8g#	-ing
4g#	pri-
8f#	-zes
8e	and
8[f#	end-
=80	=80
8f#]	_
8f#	-less
8d#	com-
8d#	-pro-
8c#	-mis-
4B	-es
8r	.
=81	=81
8g#	Sha-
8g#	-tter
8f#	the
8e	i-
8f#	-llu-
8g#	-sion
8f#	of
8e	in-
=82	=82
8f#	-teg-
4e	-ri-
4e	-ty
4.e	Yeah
=83	=83
1r	.
=84	=84
1r	.
=85	=85
1r	.
=86	=86
1r	.
=87	=87
1r	.
=88	=88
1r	.
=89	=89
1r	.
=90	=90
2r	.
4r	.
8r	.
8g#	In-
=91	=91
8g#	-vi-
8g#	-si-
8g#	-ble
4f#	air-
4.g#	-waves
=92	=92
8f#	Cra-
8f#	-ckle
8g#	with
4f#	life
8r	.
4r	.
=93	=93
4b	Bright
8b	an-
4a	-tenn-
4b	-ae
8[g#	bri-
=94	=94
8g#]	_
8a	-stle
8g#	with
8f#	the
8e	en-
8f#	-er-
4e	-gy
=95	=95
1r	.
=96	=96
2r	.
4r	.
8r	.
8g#	E-
=97	=97
8g#	-mot-
8g#	-tion-
8g#	-al
4f#	feed-
8g#	-back
8r	.
16e	on
16e	a
=98	=98
4f#	time-
8g#	-less
4g#	wave-
4f#	-length
8r	.
=99	=99
8b	Bear-
8b	-ing
8b	a
4a	gift
8b	be-
8b	-yong
8a	_
=100	=100
4a	price
8r	.
8[e	Al-
8e]	_
8f#	-most
4e	_
=101	=101
4e	free
4r	.
2r	.
=102	=102
*M3/4	*
2.r	.
=103	=103
*M4/4	*
1r	.
=104	=104
*M3/4	*
2.r	.
=105	=105
*M4/4	*
1r	.
=106	=106
*M3/4	*
2.r	.
=107	=107
*M4/4	*
1r	.
=108	=108
1r	.
=109	=109
1r	.
=110	=110
*M3/4	*
2.r	.
=111	=111
*M4/4	*
1r	.
=112	=112
*M3/4	*
2.r	.
=113	=113
*M4/4	*
1r	.
=114	=114
*M3/4	*
2.r	.
=115	=115
*M4/4	*
1r	.
=116	=116
1r	.
=117	=117
1r	.
=118	=118
1r	.
=119	=119
1r	.
=120	=120
1r	.
=121	=121
1r	.
=122	=122
1r	.
=123	=123
1r	.
=124	=124
1r	.
=125	=125
1r	.
=126	=126
1r	.
=127	=127
1r	.
=128	=128
1r	.
=129	=129
*M4/4	*
1r	.
=130	=130
1r	.
=131	=131
1r	.
=132	=132
1r	.
=133	=133
1r	.
=134	=134
1r	.
=135	=135
1r	.
=136	=136
1r	.
=137	=137
*clefF4	*
1r	.
=138	=138
2r	.
4r	.
8A	For
8BB	the
=139	=139
4E	words
8E	of
8E	the
8E	pro-
8G#	-fit
4B	were
=140	=140
8A	wri-
8A	-tten
8A	on
8A	the
8BB	stu-
8BB	-di-
8D#	-o
8[E	wall
=141	=141
4E]	_
4r	.
2r	.
=142	=142
2r	.
8g	Con-
8g	-cert
8g#	_
8[e	hall
=143	=143
4e]	_
4r	.
2r	.
=144	=144
1r	.
=145	=145
1r	.
=146	=146
1r	.
=147	=147
1r	.
=148	=148
2r	.
4r	.
8r	.
8BB	And
=149	=149
8E	e-
4.E	-choes
4r	.
8E	to
8E	the
=150	=150
2A	sound
4r	.
8G	of
8[G#	sales-
=151	=151
8G#]	_
4.E	-men
2r	.
=152	=152
*clefG2	*
2r	.
8r	.
4g	Of
8[g#	sales-
=153	=153
8g#]	_
4.e	-men
2r	.
=154	=154
8r	.
4.[g#	Of
4.g#]	_
8[ee	sales-
=155	=155
8ee]	_
4.e	-men
2r	.
=156	=156
1r	.
=157	=157
1r	.
=158	=158
1r	.
=159	=159
1r	.
=160	=160
1r	.
=161	=161
1r	.
=162	=162
1r	.
=163	=163
1r	.
=164	=164
1r	.
=165	=165
1r	.
=166	=166
1r	.
=167	=167
1r	.
=168	=168
1r	.
=169	=169
1r	.
=170	=170
1r	.
=171	=171
1r	.
=172	=172
1r	.
=173	=173
1r	.
=174	=174
1r	.
=175	=175
1r	.
=176	=176
1r	.
r;	.
r;	.
*-	*-
!!!ENC: Nathaniel Condit-Schultz